packages/core/src/svgs/tokens/mono/STSTARS.svg

<svg width="24" height="24" viewBox="0 0 24 24" fill="none" xmlns="http://www.w3.org/2000/svg">
<path fill-rule="evenodd" clip-rule="evenodd" d="M21.9988 12C21.9988 14.7643 21.0224 17.117 19.0697 19.0697C18.1538 20.0149 17.0541 20.7626 15.8382 21.2662C14.6223 21.77 13.316 22.0194 12 21.9988C9.23561 21.9988 6.88294 21.0224 4.93023 19.0697C3.98499 18.1538 3.23742 17.0541 2.73365 15.8382C2.22989 14.6223 1.98059 13.316 2.00118 12C2.00118 9.23561 2.97753 6.88294 4.93023 4.93023C5.84608 3.98499 6.94588 3.23742 8.16181 2.73365C9.37769 2.22989 10.6839 1.98059 12 2.00118C14.7643 2.00118 17.117 2.97753 19.0697 4.93023C20.0149 5.84608 20.7626 6.94588 21.2662 8.16181C21.77 9.37769 22.0194 10.6839 21.9988 12ZM18.5816 18.5816C17.7325 19.4659 16.7092 20.1646 15.5763 20.6333C14.4434 21.1021 13.2257 21.3307 12 21.3048C9.4297 21.3048 7.23584 20.399 5.41842 18.5816C4.53911 17.7286 3.84387 16.7046 3.3755 15.5726C2.90714 14.4407 2.67562 13.2249 2.69521 12C2.69521 9.4297 3.60098 7.23584 5.41842 5.41842C6.31853 4.50254 7.40044 3.78528 8.5945 3.31278C9.68099 2.89549 10.8361 2.686 12 2.69521C14.5702 2.69521 16.7641 3.60098 18.5816 5.41842C19.4609 6.27134 20.1561 7.29536 20.6244 8.4273C21.0928 9.55926 21.3243 10.7752 21.3048 12C21.3048 14.5702 20.3931 16.7641 18.5816 18.5816ZM18.7227 10.1355L14.2174 9.92966C14.1492 9.93021 14.0825 9.90867 14.0275 9.86845C13.9724 9.82824 13.9317 9.77129 13.9115 9.7061L12.3235 5.45959C12.3025 5.39142 12.2591 5.3323 12.2004 5.29176C12.1418 5.25122 12.0711 5.23161 12 5.23608C11.9288 5.23161 11.8581 5.25122 11.7995 5.29176C11.7408 5.3323 11.6974 5.39142 11.6764 5.45959L10.0884 9.7061C10.0683 9.77129 10.0275 9.82824 9.97248 9.86845C9.91745 9.90867 9.85075 9.93021 9.78254 9.92966L5.27725 10.1355C5.20651 10.1344 5.13742 10.1569 5.08096 10.1996C5.02449 10.2422 4.98386 10.3024 4.96553 10.3707C4.93884 10.4379 4.93534 10.5118 4.95558 10.5811C4.97584 10.6504 5.01867 10.711 5.07728 10.7531L8.60626 13.5821C8.7239 13.6763 8.75918 13.7998 8.7239 13.9468L7.52404 18.3228C7.47699 18.4756 7.52404 18.5992 7.65344 18.6933C7.77695 18.7874 7.91223 18.7874 8.04163 18.6992L11.8058 16.1995C11.861 16.158 11.9281 16.1354 11.997 16.1354C12.0661 16.1354 12.1332 16.158 12.1882 16.1995L15.9525 18.6992C16.0877 18.7874 16.223 18.7874 16.3465 18.6933C16.4759 18.5992 16.523 18.4756 16.4759 18.3228L15.282 13.9468C15.2592 13.8814 15.2584 13.8105 15.2796 13.7448C15.3008 13.6789 15.3429 13.6218 15.3996 13.5821L18.9285 10.7531C18.9849 10.7104 19.0257 10.6506 19.0448 10.5826C19.064 10.5147 19.0603 10.4424 19.0345 10.3766C19.0161 10.3083 18.9755 10.2481 18.9191 10.2054C18.8625 10.1628 18.7935 10.1403 18.7227 10.1414V10.1355Z" fill="white"/>
</svg>

<svg xmlns="http://www.w3.org/2000/svg" width="24" height="24" fill="none" viewBox="0 0 24 24">
    <path fill="#fff" fill-rule="evenodd" d="M21.999 12c0 2.764-.977 5.117-2.93 7.07A9.63 9.63 0 0 1 12 21.999c-2.764 0-5.117-.977-7.07-2.93A9.64 9.64 0 0 1 2.001 12c0-2.764.977-5.117 2.93-7.07A9.63 9.63 0 0 1 12 2.001c2.764 0 5.117.977 7.07 2.93A9.63 9.63 0 0 1 21.999 12m-3.417 6.582A8.87 8.87 0 0 1 12 21.305q-3.855.001-6.582-2.723A8.97 8.97 0 0 1 2.695 12q-.001-3.855 2.723-6.582a9.2 9.2 0 0 1 3.177-2.105A9.3 9.3 0 0 1 12 2.695q3.855-.001 6.582 2.723A8.97 8.97 0 0 1 21.305 12c0 2.57-.912 4.764-2.723 6.582m.14-8.446-4.505-.206a.32.32 0 0 1-.306-.224L12.324 5.46A.32.32 0 0 0 12 5.236a.32.32 0 0 0-.324.224l-1.588 4.246a.32.32 0 0 1-.305.224l-4.506.206a.32.32 0 0 0-.311.235.324.324 0 0 0 .111.382l3.53 2.83c.117.093.152.217.117.364l-1.2 4.376c-.047.153 0 .276.13.37.123.094.258.094.388.006l3.764-2.5a.32.32 0 0 1 .382 0l3.765 2.5c.135.088.27.088.393-.006.13-.094.177-.217.13-.37l-1.194-4.376a.32.32 0 0 1 .118-.365l3.528-2.829a.32.32 0 0 0 .107-.376.32.32 0 0 0-.312-.236z" clip-rule="evenodd"/>
</svg>
